packages/kaspersky-hexa-ui-icons/src/iconsSVGs/16/AppleColor.svg

<svg width="16" height="16" viewBox="0 0 16 16" fill="none" xmlns="http://www.w3.org/2000/svg">
<path d="M8.59045 2.21771C9.51041 1.00518 10.7894 0.999268 10.7894 0.999268C10.7894 0.999268 10.9796 2.13926 10.0657 3.23743C9.08983 4.41003 7.98064 4.21815 7.98064 4.21815C7.98064 4.21815 7.77237 3.29594 8.59045 2.21771ZM8.09765 5.01671C8.57092 5.01671 9.44929 4.36614 10.5926 4.36614C12.5606 4.36614 13.3349 5.76653 13.3349 5.76653C13.3349 5.76653 11.8206 6.54073 11.8206 8.41928C11.8206 10.5385 13.707 11.2688 13.707 11.2688C13.707 11.2688 12.3883 14.9802 10.6073 14.9802C9.78923 14.9802 9.15324 14.4289 8.29132 14.4289C7.41295 14.4289 6.54129 15.0008 5.97358 15.0008C4.34718 15.0008 2.29248 11.4802 2.29248 8.65012C2.29248 5.86578 4.03165 4.40515 5.66292 4.40515C6.72339 4.40515 7.54633 5.01671 8.09765 5.01671Z" fill="#999999"/>
</svg>

<svg xmlns="http://www.w3.org/2000/svg" width="16" height="16" fill="none" viewBox="0 0 16 16"><path fill="#999" d="M8.5905 2.2177c.92-1.2125 2.1989-1.2184 2.1989-1.2184s.1902 1.14-.7237 2.2381c-.9759 1.1726-2.085.9807-2.085.9807s-.2083-.9222.6098-2.0004m-.4929 2.799c.4733 0 1.3517-.6506 2.495-.6506 1.968 0 2.7423 1.4004 2.7423 1.4004s-1.5143.7742-1.5143 2.6528c0 2.1192 1.8864 2.8495 1.8864 2.8495s-1.3187 3.7114-3.0997 3.7114c-.818 0-1.454-.5513-2.316-.5513-.8783 0-1.75.5719-2.3177.5719-1.6264 0-3.6811-3.5206-3.6811-6.3507 0-2.7843 1.7392-4.245 3.3704-4.245 1.0605 0 1.8834.6116 2.4348.6116"/></svg>
